X:0
T:Lady Charlotte Murray's Favorite
C:Niel Gow
G:jig
M:6/8
L:1/8
Q:3/8=120
K:D
A/G/|F2D DFD|dFD AFD |E/=F/GE =CEG|dGE =CEG|
     F2D DFD|dFD AFD |G=cG     EFG|AFD  D2:|
g   |f2d dfd|afd de=f|e2=c     cec|gec  efg|
     f2d dfd|afd efg |fdf      ece|dAF  D2g|
     f2d dfd|afd de=f|e2=c     cec|gec  efg|
     afa geg|fdf edc |Adc      cBc|dAF  D2|]
